X:1
T:John
T:John 
T:William Henry Harper (1845-1933)
T:Joseph Manton Smith (1844-1900)
T:Public Domain Courtesy of the Cyber Hymnal™
T:Public Domain Courtesy of the Cyber Hymnal™
C:William Henry Harper (1845-1933)
Z:Public Domain
Z:Courtesy of the Cyber Hymnal™
%%score ( 1 2 ) 3
L:1/8
Q:1/4=115
M:4/4
K:G
V:1 treble 
V:2 treble 
V:3 bass 
V:1
 D2 | [DG]2 [GB]2 [GB]3 [FA] | [FA]2 G4 [DF]2 | [CE]2 [C^D]2 [CE]2 [CF]2 | [CE]2 [EA]4 [^GB]2 | %5
w: 1.~I|love to tell the|sto- ry, How|Christ, the King of|Glo- ry, Left|
w: 2.~So|now I’ll try to|please Him, My|life I give to|serve Him; His|
w: 3.~Then|bro- ther, won’t you|love Him? And,|sis- ter, won’t you|trust Him? I|
 [Ac]2 [GB]2 [DG]2 [GB]2 | [GB]2 [DA]2 [DG]2 [DF]2 | [DG]6 D2 | [DG]2 [GB]2 [GB]3 [FA] | %9
w: Heav’n a- bove and|came to res- cue|me; For|sin- ners, He re-|
w: true and faith- ful|ser- vant I will|be; And|when called home to|
w: know He died for|you as well as|me; We|need our sins for-|
 [FA]2 G4 [DF]2 | [CE]2 [C^D]2 [CE]2 [CF]2 | [CE]2 [EA]4 [^GB]2 | [Ac]2 [GB]2 [DG]2 [GB]2 | %13
w: ceives them, His|blood was shed to|save them— So|Je- sus died for|
w: glo- ry, I’ll|sing the good old|sto- ry, That|Je- sus died for|
w: giv- en, That|we may go to|Hea- ven, To|live with Christ who|
 [GB]2 [DA]2 [DG]2 [DF]2 | !fermata![DG]6 ||"^Refrain" [EA]2 z2 [^GB]2 z2 | [Ac]4 z4 | G4 [FA]4 | %18
w: sin- ners just like|me.||||
w: sin- ners just like|me.|Yes, yes,|yes,|O yes!|
w: died for you and|me.||||
 [GB]6 z2 | [DG]2 [DG]2 [EG]2 [DG]2 | [EG]2 [DG]2 [DF]2 G2 [FA]6 D2 | [DG]2 [GB]2 [GB]3 [FA] | %22
w: ||||
w: |Je- sus died to|set poor sin- ners free. You|say, “How do I|
w: ||||
 [FA]2 G4 [DF]2 | [CE]2 [C^D]2 [CE]2 [CF]2 | [CE]2 [EA]4 [^GB]2 | [Ac]2 [GB]2 [DG]2 [GB]2 | %26
w: ||||
w: know it?” John|three six- teen will|show it; That|big word “who- so-|
w: ||||
 [GB]2 [DA]2 [DG]2 [DF]2 | !fermata![DG]6 x2 |] x6 |] %29
w: |||
w: ev- er” just means|me.||
w: |||
V:2
 D2 | x8 | x2 G4 x2 | x8 | x8 | x8 | x8 | x6 D2 | x8 | x2 G4 x2 | x8 | x8 | x8 | x8 | x6 || x8 | %16
 x8 | G4 x4 | x8 | x8 | x6 G2 x4 D2 x2 | x8 | x2 G4 x2 | x8 | x8 | x8 | x8 | x8 |] x6 |] %29
V:3
 [G,B,]2 | [G,B,]2 [G,D]2 [D,D]3 [D,C] | [D,C]2 [G,B,]4 [B,,G,]2 | %3
 [C,G,]2 [C,G,]2 [C,G,]2 [C,G,]2 | [C,G,]2 [C,C]4 [B,,E]2 | [A,,E]2 [D,D]2 [D,B,]2 [D,D]2 | %6
 [D,D]2 [D,C]2 [D,B,]2 [D,C]2 | [G,B,]6 [G,B,]2 | [G,B,]2 [G,D]2 [D,D]3 [D,C] | %9
 [D,C]2 [G,B,]4 [B,,G,]2 | [C,G,]2 [C,G,]2 [C,G,]2 [C,G,]2 | [C,G,]2 [C,C]4 [B,,E]2 | %12
 [A,,E]2 [D,D]2 [D,B,]2 [D,D]2 | [D,D]2 [D,C]2 [D,B,]2 [D,C]2 | !fermata![G,B,]6 || %15
 [CE]2 z2 [E,E]2 z2 | [A,,E]4 z4 | ([E,B,]4 [D,D]4) | [G,,D]6 z2 | [G,B,]2 [G,B,]2 [G,C]2 [G,B,]2 | %20
 [G,C]2 [G,B,]2 [A,C]2 [G,B,]2 x8 | [D,C]6 [G,B,]2 | [G,B,]2 [G,D]2 [D,D]3 [D,C] | %23
 [D,C]2 [G,B,]4 [B,,G,]2 | [C,G,]2 [C,G,]2 [C,G,]2 [C,G,]2 | [C,G,]2 [C,C]4 [B,,E]2 | %26
 [A,,E]2 [D,D]2 [D,B,]2 [D,D]2 | [D,D]2 [D,C]2 [D,B,]2 [D,C]2 |] !fermata![G,B,]6 |] %29

